X:270
T:Killavil Reel, The
M:C|
L:1/8
Q:120
R:Reel (Key of D)
K:D
"D"~D2AD BDAD | ~D2AD BDAD | "Em"~E2BE cEBE | BABc dBAF |
"D"~D2AD BDAD | ~D2AD BDAD | "G"GFEF GABc |1 "D"~d2fd "A"BAFE:|2
"D"~d2fd "A"BAFA |:
"D"~d2fd Adfd | "G"~g2fg "A"edBc | "D"~d2fd Adfd | "G"~g2fg "A"e2Bc |
"D"~d2fd Adfd | "G"~g2fg "A"edBc | "G"dBBA Bcde |1 "D"fdgf "A"edBc :|2
"D"fdgf "A"edBA |]
